brandFactory_export/2.Regular/Fuera de servicio _2Regular.svg

<?xml version="1.0" encoding="UTF-8"?>
<svg width="24px" height="24px" viewBox="0 0 24 24" version="1.1" xmlns="http://www.w3.org/2000/svg" xmlns:xlink="http://www.w3.org/1999/xlink">
    <title>2.Regular/Fuera de servicio _2Regular</title>
    <g id="Symbols" stroke="none" stroke-width="1" fill="none" fill-rule="evenodd">
        <g id="2.Regular/Fuera-de-servicio-_2Regular" fill="#5CB615" fill-rule="nonzero">
            <path d="M18.2033613,9.88907563 C18.0151261,9.88907563 17.8268908,9.81848739 17.6823529,9.67058824 L15.6084034,7.58319328 C15.4705882,7.44537815 15.3932773,7.25714286 15.3932773,7.05882353 L15.3932773,4.22857143 C15.3932773,3.81848739 15.7226891,3.48907563 16.1294118,3.48907563 C16.5361345,3.48907563 16.8655462,3.82184874 16.8655462,4.22857143 L16.8655462,6.74957983 L18.7243697,8.62184874 C19.010084,8.91092437 19.010084,9.37815126 18.7243697,9.67058824 C18.5798319,9.81512605 18.3915966,9.88907563 18.2033613,9.88907563 Z M22.8789916,19.7210084 C23.1042017,19.3344538 23.410084,18.3966387 22.5932773,16.8571429 C21.3394958,14.4773109 18.9260504,14.3092437 18.9058824,14.3092437 C18.6504202,14.2991597 18.4252101,14.1512605 18.297479,13.9226891 C18.210084,13.7647059 16.0016807,9.90252101 10.6,9.90252101 C7.91428571,9.90252101 6.07226891,11.1966387 4.99327731,12.2823529 C3.35630252,13.9428571 2.48235294,16.1647059 2.49243697,17.4084034 C2.44201681,18.4168067 2.49243697,19.2168067 2.55966387,19.7210084 L3.97142857,19.7210084 C4.23697479,18.1983193 5.37310924,17.2806723 7.0605042,17.2806723 C8.74789916,17.2806723 9.88403361,18.1983193 10.1495798,19.7210084 L14.2369748,19.7210084 C14.492437,18.1983193 15.6218487,17.2907563 17.3058824,17.2907563 C18.9932773,17.2907563 20.1294118,18.1983193 20.3848739,19.7210084 L22.8789916,19.7210084 Z M18.9865546,20.4605042 L18.9865546,20.4504202 C18.9865546,19.3142857 18.4386555,18.7731092 17.3092437,18.7731092 C16.1798319,18.7731092 15.6420168,19.3176471 15.6420168,20.4504202 L15.6420168,20.4605042 C15.6420168,21.5865546 16.1798319,22.1411765 17.3092437,22.1411765 C18.4386555,22.1411765 18.9865546,21.5865546 18.9865546,20.4605042 Z M8.73781513,20.4605042 L8.73781513,20.4403361 C8.73781513,19.3042017 8.18991597,18.7630252 7.0605042,18.7630252 C5.93445378,18.7630252 5.38319328,19.307563 5.38319328,20.4403361 C5.38319328,21.5764706 5.93109244,22.1310924 7.0605042,22.1310924 C8.17983193,22.1310924 8.72773109,21.5865546 8.73781513,20.4605042 L8.73781513,20.4605042 Z M9.25882353,8.47731092 L9.25882353,8.51428571 C9.6789916,8.44705882 10.1327731,8.41680672 10.6,8.41680672 C15.9848739,8.41680672 18.6605042,11.7747899 19.3865546,12.8705882 C19.8470588,12.9512605 20.6302521,13.1495798 21.4840336,13.6336134 C22.5932773,12.4672269 23.1512605,10.7361345 23.1512605,8.47731092 C23.1512605,3.83529412 20.8084034,1.48235294 16.2,1.48235294 C11.6016807,1.48235294 9.25882353,3.83193277 9.25882353,8.47731092 Z M22.6806723,14.5344538 C23.1210084,14.9579832 23.5445378,15.492437 23.897479,16.1647059 C25.5243697,19.2571429 23.8201681,20.9277311 23.7495798,20.9983193 C23.6117647,21.1260504 23.4369748,21.2067227 23.2386555,21.2067227 L20.3848739,21.2067227 C20.1092437,22.7193277 18.9831933,23.6268908 17.3058824,23.6268908 C15.6285714,23.6268908 14.502521,22.7193277 14.2369748,21.2067227 L10.1394958,21.2067227 C9.86386555,22.7092437 8.73781513,23.6168067 7.0605042,23.6168067 C5.38319328,23.6168067 4.25714286,22.7092437 3.98151261,21.2067227 L1.92436975,21.2067227 C1.58151261,21.2067227 1.28571429,20.9613445 1.20840336,20.6218487 C1.19831933,20.5747899 0.922689076,19.297479 1.02352941,17.3815126 C1.01344538,15.8890756 1.92436975,13.3008403 3.95462185,11.2470588 C4.80840336,10.3764706 6.08235294,9.38823529 7.8,8.84369748 C7.78991597,8.72605042 7.78991597,8.59831933 7.78991597,8.48067227 C7.78991597,3.01848739 10.7815126,0.00336134454 16.2033613,0.00336134454 C21.6352941,0.00336134454 24.6268908,3.01848739 24.6268908,8.48067227 C24.6235294,11.0655462 23.9680672,13.102521 22.6806723,14.5344538 Z" id="Fuera-de-servicio-_2Regular"></path>
        </g>
    </g>
</svg>

<svg width="24" height="24" viewBox="0 0 24 24" xmlns="http://www.w3.org/2000/svg"><path d="M18.203 9.89a.722.722 0 01-.52-.22l-2.075-2.087a.74.74 0 01-.215-.524v-2.83a.737.737 0 111.473 0v2.52l1.858 1.873a.749.749 0 010 1.049.736.736 0 01-.52.218zm4.676 9.831c.225-.387.531-1.324-.286-2.864-1.254-2.38-3.667-2.548-3.687-2.548a.732.732 0 01-.609-.386c-.087-.158-2.295-4.02-7.697-4.02-2.686 0-4.528 1.294-5.607 2.38-1.637 1.66-2.51 3.882-2.5 5.125-.051 1.009 0 1.809.067 2.313H3.97c.266-1.523 1.402-2.44 3.09-2.44 1.687 0 2.823.917 3.089 2.44h4.087c.255-1.523 1.385-2.43 3.069-2.43 1.687 0 2.823.907 3.079 2.43h2.494zm-3.892.74v-.01c0-1.137-.548-1.678-1.678-1.678s-1.667.545-1.667 1.677v.01c0 1.127.538 1.681 1.667 1.681 1.13 0 1.678-.554 1.678-1.68zm-10.25 0v-.02c0-1.137-.547-1.678-1.676-1.678-1.127 0-1.678.545-1.678 1.677 0 1.136.548 1.691 1.678 1.691 1.119 0 1.667-.544 1.677-1.67zM9.26 8.477v.037c.42-.067.874-.097 1.341-.097 5.385 0 8.06 3.358 8.787 4.454a6.64 6.64 0 012.097.763c1.11-1.167 1.667-2.898 1.667-5.157 0-4.642-2.343-6.995-6.951-6.995-4.598 0-6.941 2.35-6.941 6.995zm13.422 6.057c.44.424.864.958 1.216 1.63 1.627 3.093-.077 4.764-.147 4.834a.746.746 0 01-.511.209h-2.854c-.276 1.512-1.402 2.42-3.08 2.42-1.676 0-2.802-.908-3.068-2.42h-4.098c-.275 1.502-1.401 2.41-3.078 2.41-1.678 0-2.804-.908-3.08-2.41H1.925a.742.742 0 01-.716-.585c-.01-.047-.285-1.325-.184-3.24-.01-1.493.9-4.081 2.93-6.135.854-.87 2.128-1.859 3.846-2.403-.01-.118-.01-.246-.01-.363 0-5.463 2.992-8.478 8.413-8.478 5.432 0 8.424 3.015 8.424 8.478-.003 2.585-.659 4.622-1.946 6.053z" fill="#5CB615" fill-rule="nonzero"/></svg>
